64x64/apps/com.gitlab.nvlgit.Balss.svg

<svg height="64" width="64" xmlns="http://www.w3.org/2000/svg"><path d="m12.813 5a2.8 2.8 0 0 0 -2.813 2.8v50.4a2.8 2.8 0 0 0 2.813 2.8h39.375a2.8 2.8 0 0 0 2.812-2.8v-50.4a2.8 2.8 0 0 0 -2.813-2.8h-34.32z" opacity=".2"/><path d="m17.867 4v56h34.32a2.8 2.8 0 0 0 2.813-2.8v-50.4a2.8 2.8 0 0 0 -2.813-2.8z" fill="#23a5dc"/><path d="m12.813 4a2.8 2.8 0 0 0 -2.813 2.8v50.4a2.8 2.8 0 0 0 2.813 2.8h5.187v-56z" fill="#6b3f3f"/><path d="m34.15 26.044-6.928 4-6.928 4v-16l6.928 4z" opacity=".2" transform="matrix(1.42082 0 0 1.4 -1.834 -3.461)"/><g fill="#f4f4f7"><path d="m34.15 26.044-6.928 4-6.928 4v-16l6.928 4z" transform="matrix(1.42082 0 0 1.4 -1.834 -4.461)"/><path d="m12.813 4a2.8 2.8 0 0 0 -2.813 2.8v1a2.8 2.8 0 0 1 2.813-2.8h39.375a2.8 2.8 0 0 1 2.812 2.8v-1a2.8 2.8 0 0 0 -2.813-2.8z" opacity=".2"/></g></svg>

<svg height="64" width="64" xmlns="http://www.w3.org/2000/svg">
    <path d="M12.813 5A2.8 2.8 0 0 0 10 7.8v50.4a2.8 2.8 0 0 0 2.813 2.8h39.375A2.8 2.8 0 0 0 55 58.2V7.8A2.8 2.8 0 0 0 52.187 5h-34.32z" opacity=".2"/>
    <path d="M17.867 4v56h34.32A2.8 2.8 0 0 0 55 57.2V6.8A2.8 2.8 0 0 0 52.187 4z" fill="#23a5dc"/>
    <path d="M12.813 4A2.8 2.8 0 0 0 10 6.8v50.4a2.8 2.8 0 0 0 2.813 2.8H18V4z" fill="#6b3f3f"/>
    <path d="m46.687 33-9.843 5.6L27 44.2V21.8l9.844 5.6z" opacity=".2"/>
    <g fill="#f4f4f7">
        <path d="m46.687 32-9.843 5.6L27 43.2V20.8l9.844 5.6z"/>
        <path d="M12.813 4A2.8 2.8 0 0 0 10 6.8v1A2.8 2.8 0 0 1 12.813 5h39.375A2.8 2.8 0 0 1 55 7.8v-1A2.8 2.8 0 0 0 52.187 4z" opacity=".2"/>
    </g>
</svg>
